outputs/icons/editor/format_shapes_sharp.svg

<svg width="1200" height="1200" viewBox="0 0 1200 1200" fill="none" xmlns="http://www.w3.org/2000/svg"><g clip-path="url(#clip0_238_3263)"><path d="M1150 350V50H850V150H350V50H50V350H150V850H50V1150H350V1050H850V1150H1150V850H1050V350H1150ZM150 150H250V250H150V150ZM250 1050H150V950H250V1050ZM850 950H350V850H250V350H350V250H850V350H950V850H850V950ZM1050 1050H950V950H1050V1050ZM950 250V150H1050V250H950ZM686.5 700H512L475.5 800H394.5L564.5 350H634.5L805 800H723.5L686.5 700ZM534.5 637H665L600 445.5L534.5 637Z" fill="black"/></g><defs><clipPath id="clip0_238_3263"><path width="24" fill="white" d="M0 0H1200V1200H0V0z"/></clipPath></defs></svg>

<svg xmlns="http://www.w3.org/2000/svg" width="1200" height="1200" fill="none"><g clip-path="url(#a)"><path fill="#000" d="M1150 350V50H850v100H350V50H50v300h100v500H50v300h300v-100h500v100h300V850h-100V350zM150 150h100v100H150zm100 900H150V950h100zm600-100H350V850H250V350h100V250h500v100h100v500H850zm200 100H950V950h100zM950 250V150h100v100zM686.5 700H512l-36.5 100h-81l170-450h70L805 800h-81.5zm-152-63H665l-65-191.5z"/></g><defs><clipPath id="a"><path fill="#fff" d="M0 0h1200v1200H0z"/></clipPath></defs></svg>
